src/images/6.svg

<svg width="30" height="30" viewBox="0 0 30 30" fill="none" xmlns="http://www.w3.org/2000/svg">
<path d="M26.6667 0H3.33333C1.5 0 0 1.5 0 3.33333V26.6667C0 28.5 1.5 30 3.33333 30H26.6667C28.5 30 30 28.5 30 26.6667V3.33333C30 1.5 28.5 0 26.6667 0ZM10 23.3333H6.66667V11.6667H10V23.3333ZM16.6667 23.3333H13.3333V6.66667H16.6667V23.3333ZM23.3333 23.3333H20V16.6667H23.3333V23.3333Z" fill="white"/>
</svg>

<svg width="30" height="30" fill="none" xmlns="http://www.w3.org/2000/svg"><path d="M26.667 0H3.333A3.343 3.343 0 0 0 0 3.333v23.334C0 28.5 1.5 30 3.333 30h23.334C28.5 30 30 28.5 30 26.667V3.333C30 1.5 28.5 0 26.667 0zM10 23.333H6.667V11.667H10v11.666zm6.667 0h-3.334V6.667h3.334v16.666zm6.666 0H20v-6.666h3.333v6.666z" fill="#fff"/></svg>
